X:624
%%etbk:tnset id:367,pos:1,rep:3x,ant:
%%etbk:wsite https://thesession.org/tunes/1730
%%etbk:pldat 2015-05-06T15:24,2015-02-04T16:38,2015-02-03T16:09,2015-01-31T16:15,2015-01-27T16:27,2015-01-26T18:56,2015-01-25T16:24,2015-01-22T18:33,2015-01-20T15:58,2015-01-18T13:52
T: The Humours Of Carrigaholt
Z: Piano Box Version by Martin Fleischmann
H: Created 2015-01-17 /  Last Modified 2015-01-17
R: reel
M: 4/4
L: 1/8
K: Dmaj
| !3!d!2!c!1!A!2!F !3!G2AG | !2!F2 DE !3!F!1!GAB | !4!=cAA!1!F !1!G2 FG | A!5!d!3!dc !3!de!5!fe |
dcAF G2AG | F2 DE FGAB | =cAAF G2 FG | Addc d4 |
fdde fdgf | edcd efge | fd d2 fdgf | edcd e3 g |
fdde fdgf | edcd efge | agfa g!3!f!1!e!2!c | !3!dfec d4 |


